X:3
T:Requiem For The Stewart Tartan 2nds
T:Medley 2019
R:Death March
C:Adam Blaine
M:3/4
L:1/8
K:D
[| {g}B4 {gcd}c{e}B | {Gdc}d4 e2 | {fege}f4 {gf}g2 | {a}e4 {g}f>e | 
{Gdc}d4 e2 | {g}(f2 f>)e d2 | {gcd}c<{e}(B B4) | {gBG}B4 c2 |
{g}d4 {ag}a2 | {e}f4 {g}ed | {g}d2 A2 B2 | {g}c2 B2 {G}A2 | 
{g}(d2 d>)e {g}f2 | {ag}a4 {f}g2 | {a}g<(f f2) e2 | {g}f4 {g}de ||
{g}d4 {g}f2 | {g}e6 | {ag}a6 | d2 c2 A2 |
{g}d6 | c6 | {g}e6 | {A}e4 {g}d>e |
{g}d2 c2 d2 | {g}c4 d2 | {g}c6 [M:4/4]| "High A 4ths"{g}f6 {g}d>c |
[M:3/4]{g}B4 d2 | {ge}(f2 f>)e d2 | {gcd}c<{e}(B HB4) |]
